build/images/content/slider/img_2.svg

<svg width="453" height="457" viewBox="0 0 453 457" fill="none" xmlns="http://www.w3.org/2000/svg">
<g filter="url(#filter0_d)">
<rect width="17.311" height="136.565" transform="matrix(0 -1 -1 0 287.301 366.177)" stroke="#00BBD3" stroke-width="2" stroke-linejoin="round"/>
</g>
<g filter="url(#filter1_d)">
<rect x="119" y="446" width="124.062" height="201" rx="8" transform="rotate(-90 119 446)" stroke="#00BBD3" stroke-width="2"/>
</g>
<rect opacity="0.2" width="5.20481" height="134.641" transform="matrix(1.02192e-07 -1 -1 3.06159e-08 286.341 391.578)" fill="#00BBD3"/>
<rect opacity="0.2" width="4.80862" height="134.641" transform="matrix(1.02192e-07 -1 -1 3.06159e-08 286.341 399.837)" fill="#00BBD3"/>
<rect opacity="0.2" width="5.3843" height="134.641" transform="matrix(1.02192e-07 -1 -1 3.06159e-08 286.341 408.987)" fill="#00BBD3"/>
<rect opacity="0.2" width="4.80861" height="112.522" transform="matrix(1.50553e-08 -1 -1 1.11983e-08 264.221 417.148)" fill="#00BBD3"/>
<g filter="url(#filter2_d)">
<path d="M89.5 128.853C89.2315 128.047 90.8911 126.345 92.5379 125.457C94.239 124.539 102.27 120.656 117.554 113.451M89.5 128.853L89.6866 131.578M89.5 128.853C88.5531 128.379 85.8524 127.663 82.3559 128.385C81.3815 128.586 80.4404 128.948 79.6015 129.483C75.1936 132.293 74.0556 137.025 74.0624 139.206M214.006 127.127L210.569 81.5869C210.311 78.1624 209.211 74.1693 205.792 73.8472C202.409 73.5284 198.34 75.2982 195.678 76.3636C183.095 82.3652 165.849 90.5753 148.965 98.5875M214.006 127.127C213.74 123.827 210.18 124.167 205.348 125.457C201.54 126.473 155.109 147.161 118.713 163.381C106.008 169.043 91.572 160.314 90.6614 146.435L89.6866 131.578M214.006 127.127C214.006 128.739 212.283 129.297 210.175 130.369M89.6866 131.578V131.578C84.3781 134.015 81.0726 139.423 81.324 145.259L82.9218 182.359M82.9218 182.359V182.359C84.1859 183.118 85.7381 183.222 87.0922 182.639L93.3921 179.924M82.9218 182.359L201.513 129.716M199.789 133.593C201.681 132.736 204.097 131.441 201.513 129.716M199.789 133.593L132.051 163.266M199.789 133.593C200.22 140.932 204.632 141.79 206.682 141.363C211.955 140.266 210.175 132.503 210.175 130.369M201.513 129.716C203.727 128.608 210.635 125.725 210.175 130.369M148.965 98.5875C152.455 95.3442 158.024 89.6645 165.073 85.6333C167.909 84.0114 173.226 81.2601 182.556 76.3636M148.965 98.5875C140.323 102.688 131.777 106.737 123.997 110.411M252.056 40.0915C262.526 30.821 274.849 34.8533 283.305 36.4654C290.071 37.7551 323.837 47.7952 338.335 53.3032C354.308 58.8116 387.069 74.1075 390.612 76.3636C395.042 79.1837 410.79 84.5953 418.218 113.443M252.056 40.0915C246.15 44.5251 235.465 63.2261 239.975 102.561C244.485 141.897 254.09 165.294 259.46 172.28C263.084 177.923 274.061 190.44 290.643 195.233C305.14 199.423 335.952 206.273 349.51 209.363C369.242 212.99 407.499 219.642 415.375 218.229M252.056 40.0915C250.53 40.8853 248.915 41.7259 247.224 42.6059M430.967 201.705C430.328 213.459 414.458 214.513 409.872 214.513C404.37 214.513 363.201 206.944 349.51 204.526C335.818 202.107 293.864 190.53 290.643 189.724C287.421 188.918 275.209 184.326 263.128 168.608C251.047 152.89 243.868 111.211 243.868 81.3876C243.868 51.5638 255.791 42.6059 262.211 40.0915C279.637 34.0472 348.298 60.2642 383.739 76.6903C394.964 81.8928 402.587 88.9509 404.428 90.8897C408.311 94.981 413.873 100.812 418.218 113.443M430.967 201.705C430.268 214.559 420.741 217.267 415.375 218.229M430.967 201.705C430.967 201.705 437.387 187.888 418.218 113.443M132.051 163.266C133.125 169.765 138.253 185.423 150.173 196.063C165.073 209.363 191.248 219.438 229.102 218.229C266.956 217.02 301.186 210.572 312.864 209.363C324.542 208.154 332.194 208.96 335.415 211.378C337.992 213.312 335.684 218.095 334.207 220.244C333.508 221.06 332.385 222.275 331.127 223.469M132.051 163.266L108.493 173.417M415.375 218.229L386.155 223.469L332.465 235.578C330.254 236.076 327.937 235.555 326.153 234.158V234.158M108.493 173.417C110.037 179.219 114.655 193 120.776 201.705C125.349 208.21 135.679 215.291 145.743 220.365M108.493 173.417L97.8218 178.015M163.865 227.096C175.543 229.111 213.823 233.86 231.945 231.039M163.865 227.096C101.446 252.486 72.3475 244.023 54.7329 239.59C40.6412 236.043 31.3552 224.946 28.4737 219.841M163.865 227.096C159.167 226.285 152.515 223.779 145.743 220.365M231.945 231.039C235.439 230.495 238.234 230.246 242.951 229.203M231.945 231.039C218.656 237.084 212.993 240.687 194.342 248.483C173.549 257.174 152.789 265.474 131.058 271.435C112.013 276.66 86.5462 281.404 66.0085 274.25C45.4707 267.095 31.9094 251.371 28.4737 238.381C26.536 231.055 26.6961 226.78 28.4737 219.841M331.127 223.469C329.605 224.913 326.852 226.24 326.459 226.426C326.426 226.441 326.398 226.454 326.365 226.468C325.994 226.625 323.5 227.682 321.632 228.417C320.858 228.722 320.665 229.859 321.321 230.373V230.373M331.127 223.469C333.283 221.585 333.033 216.37 328.604 215.564C323.003 214.545 318.629 214.815 305.34 216.427C301.269 216.921 293.849 218.109 286.286 219.897M286.286 219.897C286.957 223.371 288.782 231.529 290.715 236.365C293.724 243.892 297.154 250.508 299.977 249.665L308.031 247.247M286.286 219.897C273.916 222.82 255.203 226.492 242.951 229.203M308.031 247.247V247.247C309.423 247.943 311.112 247.524 312.037 246.273C313.601 244.16 315.696 241.416 317.294 239.59C319.549 237.01 324.14 234.894 326.153 234.158M308.031 247.247C306.632 246.194 304.478 244.468 304.478 241.88C304.478 237.043 308.986 236.365 311.253 235.156C315.142 233.083 319.039 231.027 321.321 230.373M326.153 234.158L321.321 230.373M182.556 76.3636C174.983 77.8229 158.573 81.6757 147.757 89.6645C138.092 96.8029 127.89 106.47 123.997 110.411M182.556 76.3636C194.737 69.9712 211.395 61.2738 226.686 53.3032M123.997 110.411C121.782 111.457 119.629 112.473 117.554 113.451M74.0624 139.206L76.8813 186.39M74.0624 139.206L72.0906 140.285M72.4516 188.406L76.8813 186.39M72.4516 188.406V185.181M72.4516 188.406C71.7468 188.673 71.4036 188.803 70.1187 189.298M76.8813 186.39C77.1498 188.137 79.1364 191.469 84.9353 190.824C92.184 190.018 92.1841 183.533 93.3921 179.924M70.1187 143.267V143.267C70.1187 142.093 70.759 141.013 71.7886 140.45L72.0906 140.285M70.1187 143.267L72.4516 185.181M70.1187 143.267C69.0817 143.777 68.3496 143.765 67.0975 144.383M242.951 229.203C230.111 236.547 206.148 248.483 174.164 261.336C147.225 272.163 121.887 279.972 102.627 281.535C72.8267 283.953 57.9545 276.668 44.2626 266.189C34.1765 258.47 28.6794 248.127 25.6787 238.381M38.2221 204.93C33.1622 208.493 30.0209 213.802 28.4737 219.841M38.2221 204.93C44.4162 204.481 52.1849 204.75 60.7734 205.501C62.1435 205.621 63.5346 205.753 64.9434 205.896M38.2221 204.93C46.6773 198.975 56.66 194.672 66.2358 190.824M72.4516 185.181C65.6404 187.734 50.7059 194.693 45.8734 197.272C38.4259 200.741 29.9898 206.25 26.5438 216.214C23.3221 225.53 24.4506 234.753 25.6787 238.381M25.6787 238.381C24.606 234.897 23.8524 231.489 23.3221 228.305C21.3086 216.214 20.5032 197.272 21.3086 185.181C22.114 173.091 32.0418 163.099 38.2221 159.388C41.084 157.669 57.133 149.302 67.0975 144.383M93.3921 179.924L97.8218 178.015M145.743 220.365C133.767 217.479 114.411 213.308 94.6002 209.997M97.8218 178.015C97.5534 180.404 96.7749 187.358 95.8083 196.063C95.4637 199.167 95.2112 201.7 95.0289 203.721M94.6002 209.997C94.6002 209.342 94.7002 207.366 95.0289 203.721M94.6002 209.997C84.5291 208.314 74.3403 206.853 64.9434 205.896M95.0289 203.721C92.3356 203.049 87.5442 201.744 81.7453 200.777C77.7183 200.105 73.1234 199.914 69.6824 199.482M229.193 52.0082C227.996 52.6322 227.904 52.6685 226.686 53.3032M229.193 52.0082C216.353 36.4654 206.978 31.1835 197.289 28.4451M229.193 52.0082C229.733 51.7271 231.387 50.8534 231.921 50.5749M226.686 53.3032C223.116 47.7928 218.098 43.2004 213.996 40.0915M213.996 40.0915C211.804 38.4306 209.873 37.1931 208.565 36.4654C200.376 32.4351 179.167 26.3092 159.838 34.0472C135.676 43.7198 114.876 63.9436 97.8218 87.6495C89.6866 100.26 74.0624 124.228 72.0906 140.285M213.996 40.0915C209.098 39.5422 196.645 39.7406 186.013 44.9289C172.724 51.4143 145.743 63.6371 117.554 113.451M247.224 42.6059C245.21 40.9621 231.921 34.0472 226.087 30.823M247.224 42.6059C242.592 45.0166 237.394 47.7231 231.921 50.5749M226.087 30.823C225.61 29.5312 224.795 28.2644 223.464 27.5988C220.887 26.3091 201.719 20.0757 192.456 17.1202C190.311 16.4357 188.993 18.8129 189.638 20.7474C190.443 23.1656 195.678 27.9595 197.289 28.4451M226.087 30.823L198.819 22.1044C196.993 21.5205 195.58 23.7424 196.885 25.148V25.148C197.148 25.4315 197.492 25.6244 197.869 25.7118C200.899 26.415 206.779 28.2619 211.852 31.2962C212.661 31.78 213.449 32.2939 214.202 32.8382C220.001 37.0297 228.431 46.4091 231.921 50.5749M197.289 28.4451C186.959 25.5256 177.833 25.8918 169.579 27.5988C153.987 30.823 125.864 43.4356 98.5472 80.1046C92.6409 88.0329 81.5966 105.557 76.8813 115.48C69.2308 131.578 67.9591 137.759 67.0975 144.383M66.2358 190.824L64.9434 205.896M66.2358 190.824C67.4678 190.329 68.8339 189.794 70.1187 189.298M70.1187 189.298C70.1187 191.462 69.739 197.732 69.6824 199.482M69.2516 206.464C69.6824 203.721 69.6258 201.232 69.6824 199.482" stroke="#00BBD3" stroke-width="2"/>
</g>
<defs>
<filter id="filter0_d" x="129.736" y="331.866" width="178.565" height="59.311" filterUnits="userSpaceOnUse" color-interpolation-filters="sRGB">
<feFlood flood-opacity="0" result="BackgroundImageFix"/>
<feColorMatrix in="SourceAlpha" type="matrix" values="0 0 0 0 0 0 0 0 0 0 0 0 0 0 0 0 0 0 127 0"/>
<feOffset dy="4"/>
<feGaussianBlur stdDeviation="10"/>
<feColorMatrix type="matrix" values="0 0 0 0 0 0 0 0 0 0.733333 0 0 0 0 0.827451 0 0 0 0.36 0"/>
<feBlend mode="normal" in2="BackgroundImageFix" result="effect1_dropShadow"/>
<feBlend mode="normal" in="SourceGraphic" in2="effect1_dropShadow" result="shape"/>
</filter>
<filter id="filter1_d" x="108" y="310.938" width="223" height="146.062" filterUnits="userSpaceOnUse" color-interpolation-filters="sRGB">
<feFlood flood-opacity="0" result="BackgroundImageFix"/>
<feColorMatrix in="SourceAlpha" type="matrix" values="0 0 0 0 0 0 0 0 0 0 0 0 0 0 0 0 0 0 127 0"/>
<feOffset/>
<feGaussianBlur stdDeviation="5"/>
<feColorMatrix type="matrix" values="0 0 0 0 0 0 0 0 0 0.733333 0 0 0 0 0.827451 0 0 0 0.36 0"/>
<feBlend mode="normal" in2="BackgroundImageFix" result="effect1_dropShadow"/>
<feBlend mode="normal" in="SourceGraphic" in2="effect1_dropShadow" result="shape"/>
</filter>
<filter id="filter2_d" x="0" y="-0.000976562" width="453" height="307.001" filterUnits="userSpaceOnUse" color-interpolation-filters="sRGB">
<feFlood flood-opacity="0" result="BackgroundImageFix"/>
<feColorMatrix in="SourceAlpha" type="matrix" values="0 0 0 0 0 0 0 0 0 0 0 0 0 0 0 0 0 0 127 0"/>
<feOffset dy="4"/>
<feGaussianBlur stdDeviation="10"/>
<feColorMatrix type="matrix" values="0 0 0 0 0 0 0 0 0 0.733333 0 0 0 0 0.827451 0 0 0 0.3 0"/>
<feBlend mode="normal" in2="BackgroundImageFix" result="effect1_dropShadow"/>
<feBlend mode="normal" in="SourceGraphic" in2="effect1_dropShadow" result="shape"/>
</filter>
</defs>
</svg>

<svg width="453" height="457" fill="none" xmlns="http://www.w3.org/2000/svg"><g filter="url(#filter0_d)"><path stroke="#00BBD3" stroke-width="2" stroke-linejoin="round" d="M287.301 366.177v-17.311H150.736v17.311z"/></g><g filter="url(#filter1_d)"><rect x="119" y="446" width="124.062" height="201" rx="8" transform="rotate(-90 119 446)" stroke="#00BBD3" stroke-width="2"/></g><path opacity=".2" fill="#00BBD3" d="M286.341 391.578v-5.205H151.7v5.205zm0 8.259v-4.809H151.7v4.809zm0 9.15v-5.384H151.7v5.384zm-22.12 8.161v-4.809H151.699v4.809z"/><g filter="url(#filter2_d)"><path d="M89.5 128.853c-.269-.806 1.391-2.508 3.038-3.396 1.701-.918 9.732-4.801 25.016-12.006M89.5 128.853l.187 2.725m-.187-2.725c-.947-.474-3.648-1.19-7.144-.468a8.199 8.199 0 00-2.754 1.098c-4.408 2.81-5.546 7.542-5.54 9.723m139.944-12.079l-3.437-45.54c-.258-3.425-1.358-7.418-4.777-7.74-3.383-.319-7.452 1.451-10.114 2.517a27601.735 27601.735 0 01-46.713 22.224m65.041 28.539c-.266-3.3-3.826-2.96-8.658-1.67-3.808 1.016-50.239 21.704-86.635 37.924-12.705 5.662-27.141-3.067-28.052-16.946l-.974-14.857m124.319-4.451c0 1.612-1.723 2.17-3.831 3.242m-120.488 1.209v0a14.373 14.373 0 00-8.363 13.681l1.598 37.1m0 0v0a4.582 4.582 0 004.17.28l6.3-2.715m-10.47 2.435l118.591-52.643m-1.724 3.877c1.892-.857 4.308-2.152 1.724-3.877m-1.724 3.877l-67.738 29.673m67.738-29.673c.431 7.339 4.843 8.197 6.893 7.77 5.273-1.097 3.493-8.86 3.493-10.994m-8.662-.653c2.214-1.108 9.122-3.991 8.662.653m-61.21-31.781c3.49-3.244 9.059-8.923 16.108-12.955 2.836-1.622 8.153-4.373 17.483-9.27m-33.591 22.225c-8.642 4.1-17.188 8.149-24.968 11.823m128.059-70.32c10.47-9.27 22.793-5.238 31.249-3.626 6.766 1.29 40.532 11.33 55.03 16.838 15.973 5.509 48.734 20.805 52.277 23.06 4.43 2.82 20.178 8.232 27.606 37.08M252.056 40.092c-5.906 4.433-16.591 23.134-12.081 62.469 4.51 39.336 14.115 62.733 19.485 69.719 3.624 5.643 14.601 18.16 31.183 22.953 14.497 4.19 45.309 11.04 58.867 14.13 19.732 3.627 57.989 10.279 65.865 8.866M252.056 40.091l-4.832 2.515m183.743 159.099c-.639 11.754-16.509 12.808-21.095 12.808-5.502 0-46.671-7.569-60.362-9.987-13.692-2.419-55.646-13.996-58.867-14.802-3.222-.806-15.434-5.398-27.515-21.116-12.081-15.718-19.26-57.397-19.26-87.22 0-29.824 11.923-38.782 18.343-41.297 17.426-6.044 86.087 20.173 121.528 36.6 11.225 5.202 18.848 12.26 20.689 14.199 3.883 4.091 9.445 9.922 13.79 22.553m12.749 88.262c-.699 12.854-10.226 15.562-15.592 16.524m15.592-16.524s6.42-13.817-12.749-88.262m-286.167 49.823c1.074 6.499 6.202 22.157 18.122 32.797 14.9 13.3 41.075 23.375 78.929 22.166 37.854-1.209 72.084-7.657 83.762-8.866 11.678-1.209 19.33-.403 22.551 2.015 2.577 1.934.269 6.717-1.208 8.866a45.755 45.755 0 01-3.08 3.225m-199.076-60.203l-23.558 10.151m306.882 44.812l-29.22 5.24-53.69 12.109a7.547 7.547 0 01-6.312-1.42v0m-217.66-60.741c1.544 5.802 6.162 19.583 12.283 28.288 4.573 6.505 14.903 13.586 24.967 18.66m-37.25-46.948l-10.671 4.598m66.043 49.081c11.678 2.015 49.958 6.764 68.08 3.943m-68.08-3.943c-62.419 25.39-91.518 16.927-109.132 12.494-14.092-3.547-23.378-14.644-26.26-19.749m135.392 7.255c-4.698-.811-11.35-3.317-18.122-6.731m86.202 10.674c3.494-.544 6.289-.793 11.006-1.836m-11.006 1.836c-13.289 6.045-18.952 9.648-37.603 17.444-20.793 8.691-41.553 16.991-63.284 22.952-19.045 5.225-44.512 9.969-65.05 2.815-20.537-7.155-34.099-22.879-37.534-35.869-1.938-7.326-1.778-11.601 0-18.54m302.653 3.628c-1.522 1.444-4.275 2.771-4.668 2.957l-.094.042c-.371.157-2.865 1.214-4.733 1.949-.774.305-.967 1.442-.311 1.956v0m9.806-6.904c2.156-1.884 1.906-7.099-2.523-7.905-5.601-1.019-9.975-.749-23.264.863-4.071.494-11.491 1.682-19.054 3.47m0 0c.671 3.474 2.496 11.632 4.429 16.468 3.009 7.527 6.439 14.143 9.262 13.3l8.054-2.418m-21.745-27.35c-12.37 2.923-31.083 6.595-43.335 9.306m65.08 18.044v0a3.205 3.205 0 004.006-.974c1.564-2.113 3.659-4.857 5.257-6.683 2.255-2.58 6.846-4.696 8.859-5.432m-18.122 13.089c-1.399-1.053-3.553-2.779-3.553-5.367 0-4.837 4.508-5.515 6.775-6.724 3.889-2.073 7.786-4.129 10.068-4.783m4.832 3.785l-4.832-3.785M182.556 76.363c-7.573 1.46-23.983 5.313-34.799 13.302-9.665 7.138-19.867 16.805-23.76 20.746m58.559-34.047a19805.8 19805.8 0 0144.13-23.06M123.997 110.41a9621.052 9621.052 0 01-6.443 3.04m-43.492 25.755l2.82 47.184m-2.82-47.184l-1.971 1.079m.36 48.121l4.43-2.016m-4.43 2.016v-3.225m0 3.225c-.704.267-1.047.397-2.332.892m6.762-2.908c.269 1.747 2.255 5.079 8.054 4.434 7.249-.806 7.25-7.291 8.457-10.9M70.12 143.267v0a3.21 3.21 0 011.67-2.817l.302-.165m-1.972 2.982l2.333 41.914m-2.333-41.914c-1.037.51-1.77.498-3.022 1.116m175.854 84.82c-12.84 7.344-36.803 19.28-68.787 32.133-26.939 10.827-52.277 18.636-71.537 20.199-29.8 2.418-44.672-4.867-58.364-15.346-10.087-7.719-15.584-18.062-18.584-27.808m12.543-33.451c-5.06 3.563-8.201 8.872-9.748 14.911m9.748-14.911c6.194-.449 13.963-.18 22.551.571 1.37.12 2.762.252 4.17.395m-26.72-.966c8.454-5.955 18.437-10.258 28.013-14.106m6.216-5.643c-6.812 2.553-21.746 9.512-26.579 12.091-7.447 3.469-15.883 8.978-19.33 18.942-3.22 9.316-2.092 18.539-.864 22.167m0 0a77.639 77.639 0 01-2.357-10.076c-2.013-12.091-2.819-31.033-2.013-43.124.805-12.09 10.733-22.082 16.913-25.793 2.862-1.719 18.911-10.086 28.875-15.005m26.295 35.541l4.43-1.909m47.921 42.35c-11.976-2.886-31.332-7.057-51.143-10.368m3.222-31.982c-.269 2.389-1.047 9.343-2.014 18.048a376.903 376.903 0 00-.78 7.658m-.428 6.276c0-.655.1-2.631.429-6.276m-.429 6.276c-10.07-1.683-20.26-3.144-29.657-4.101m30.086-2.175c-2.693-.672-7.485-1.977-13.284-2.944-4.027-.672-8.622-.863-12.063-1.295m159.51-147.474c-1.197.624-1.289.66-2.507 1.295m2.507-1.295c-12.84-15.543-22.215-20.825-31.904-23.563m31.904 23.563c.54-.28 2.194-1.155 2.728-1.433m-5.235 2.728c-3.57-5.51-8.588-10.103-12.69-13.211m0 0c-2.192-1.661-4.123-2.899-5.431-3.627-8.189-4.03-29.398-10.156-48.727-2.418-24.162 9.673-44.962 29.897-62.016 53.603-8.135 12.61-23.76 36.578-25.731 52.635M213.996 40.091c-4.898-.549-17.351-.35-27.983 4.838-13.289 6.485-40.27 18.708-68.459 68.522m129.67-70.845c-2.014-1.644-15.303-8.559-21.137-11.783m21.137 11.783c-4.632 2.41-9.83 5.117-15.303 7.969m-5.834-19.752c-.477-1.292-1.292-2.559-2.623-3.224-2.577-1.29-21.745-7.523-31.008-10.479-2.145-.684-3.463 1.693-2.818 3.627.805 2.419 6.04 7.212 7.651 7.698m28.798 2.378l-27.268-8.719c-1.826-.584-3.239 1.638-1.934 3.044v0c.263.284.607.476.984.564 3.03.703 8.91 2.55 13.983 5.584.809.484 1.597.998 2.35 1.542 5.799 4.192 14.229 13.571 17.719 17.737m-34.632-22.13c-10.33-2.92-19.456-2.553-27.71-.846-15.592 3.224-43.715 15.837-71.032 52.506-5.906 7.928-16.95 25.452-21.666 35.375-7.65 16.098-8.922 22.279-9.784 28.903m-.861 46.441l-1.293 15.072m1.293-15.072c1.232-.495 2.598-1.03 3.883-1.526m0 0c0 2.164-.38 8.434-.437 10.184m-.43 6.982c.43-2.743.374-5.232.43-6.982" stroke="#00BBD3" stroke-width="2"/></g><defs><filter id="filter0_d" x="129.736" y="331.866" width="178.565" height="59.311" filterUnits="userSpaceOnUse" color-interpolation-filters="sRGB"><feFlood flood-opacity="0" result="BackgroundImageFix"/><feColorMatrix in="SourceAlpha" values="0 0 0 0 0 0 0 0 0 0 0 0 0 0 0 0 0 0 127 0"/><feOffset dy="4"/><feGaussianBlur stdDeviation="10"/><feColorMatrix values="0 0 0 0 0 0 0 0 0 0.733333 0 0 0 0 0.827451 0 0 0 0.36 0"/><feBlend in2="BackgroundImageFix" result="effect1_dropShadow"/><feBlend in="SourceGraphic" in2="effect1_dropShadow" result="shape"/></filter><filter id="filter1_d" x="108" y="310.938" width="223" height="146.062" filterUnits="userSpaceOnUse" color-interpolation-filters="sRGB"><feFlood flood-opacity="0" result="BackgroundImageFix"/><feColorMatrix in="SourceAlpha" values="0 0 0 0 0 0 0 0 0 0 0 0 0 0 0 0 0 0 127 0"/><feOffset/><feGaussianBlur stdDeviation="5"/><feColorMatrix values="0 0 0 0 0 0 0 0 0 0.733333 0 0 0 0 0.827451 0 0 0 0.36 0"/><feBlend in2="BackgroundImageFix" result="effect1_dropShadow"/><feBlend in="SourceGraphic" in2="effect1_dropShadow" result="shape"/></filter><filter id="filter2_d" x="0" y="-.001" width="453" height="307.001" filterUnits="userSpaceOnUse" color-interpolation-filters="sRGB"><feFlood flood-opacity="0" result="BackgroundImageFix"/><feColorMatrix in="SourceAlpha" values="0 0 0 0 0 0 0 0 0 0 0 0 0 0 0 0 0 0 127 0"/><feOffset dy="4"/><feGaussianBlur stdDeviation="10"/><feColorMatrix values="0 0 0 0 0 0 0 0 0 0.733333 0 0 0 0 0.827451 0 0 0 0.3 0"/><feBlend in2="BackgroundImageFix" result="effect1_dropShadow"/><feBlend in="SourceGraphic" in2="effect1_dropShadow" result="shape"/></filter></defs></svg>
